!!!OTL: Graf Friedrich.
!!!OTL-incipit: Graf Friedrich wollt' ausreiten
!!!ARE: Europa, Mitteleuropa, Deutschland / France, Lothringen
!!!YOR: 2, S. 215
!!    1934 aufgezeichnet
!!!SCT: Q0048G
!!!YEM: Copyright 1995, estate of Helmut Schaffrath.
**kern	**text
*ICvox	*
!! Irregular meter.
*MX	*
*M6/4	*
*k[b-]	*
*F:	*
!LO:TX:a:t=Lothringen 1934	!
{4c	Graf
=1:	=1:
2g	Fried-
4a	-rich
2f	wollt'
8gL	aus-
8aJ	.
=2:	=2:
(4b-	-rei-
4a)	.
4g	-ten
4r	.
4r}	.
{4c	mit
=3:	=3:
2g	ſei-
8aL	-nen
8gJ	.
2f	Hoch-
8gL	-ʒeits-
8aJ	.
=4:	=4:
(4b-	-leu-
4a)	.
4g	-ten
4r	.
4r	.
8r}	.
{[8f	Wen
=5:	=5:
4f]	.
4e	nahm
4f	er
=6	=6
4d	mit
4c	ſich?
4g	Die
2g	ſchön-
4f	-ſte
=7	=7
2g	Braut,
4r}	.
{(4cc	die
8b-q)	.
4a	ihm
4g	ʒur
=9	=9
(4.f	Eh'
8e)	.
4d	war
8cL	an-
8dJ	.
4e	-ver-
=10	=10
2f}	-traut.
==	==
!!!AGN: Ballade, Hochzeit, Mord / Unfall, Tod
!! Taktart in "FREI" geaendert. Unklar. Verzierung in der letzten Zeile.
!!    Kleinere Melodievariante abgedruckt.
!!!ONB: ESAC (Essen Associative Code) Database: BALLADE
!!!AMT: irregular
!!!AIN: vox
!!!EED: Helmut Schaffrath
!!!EEV: 1.0
!!!source: Deutsche Volkslieder mit ihren Melodien. Herausgegeben vom Deutschen Volksliedarchiv. Zweiter Band Balladen. Berlin 1939.
!!!page: 215
!!!ENC: Anna Maria Matuszewska
!!!EEV: 2025/02/17
*-	*-
